X:1
T:Ah !  Vous dirais-je, maman 
C:Un thme bien connu de W.A. Mozart, fichier abc : Bernard Loffet
L:1/8
Q:260
M:2/2
K:C
 [G2G,2][G2G,2] [d2G,2][d2G,2] | [e2D,2][e2D,2] [d2G,2]G,2 | [c2D,2][c2D,2] [B2G,2][B2G,2] | \
 [A2D,2][A2D,2] [G2G,2]G,2 | [d2G,2][d2G,2] [c2D,2][c2D,2] | [B2G,2][B2G,2] [B2G,2][A2D,2] | \
 [d2G,2][d2G,2] [c2D,2][c2D,2] | [B2G,2][B2G,2] [A2D,2]D,2 | [G2G,2][G2G,2] [d2G,2][d2G,2] | \
 [e2D,2][e2D,2] [d2G,2]G,2 | [c2D,2][c2D,2] [B2G,2][B2G,2] | [A2D,2][A2D,2] [G2G,2]G,2 | \
Z:Created with TablEdit http://www.tabledit.com/ by Bernard Loffet
